X: 31183
T: Paddy Fahey's
R: reel
M: 4/4
K: Gmajor
gfdc AGDE|E=FAF cFAF|GA (3Bcd fgag|{/a} gfde fgaf|
gfdc AGDE|E=FAF cFAF|GA (3Bcd gfdc|(3Bcd cA GA (3Bcd:|
|:g{/a}g{/f}ga {/a} gfdf|{/g} fg{/b} ag {/a} gfde|fd~dd Ad~dd|(3efg {/b} ag fdef|
g{/a}g{/f} ga {/a} gfdf|fgag {/a} gfde|fd~dd Adfg|{/a} fdcA GA (3Bcd:|

